svgs/1F4A9.svg

<svg xmlns="http://www.w3.org/2000/svg" xmlns:xlink="http://www.w3.org/1999/xlink" preserveAspectRatio="none" viewBox="0 0 72 72"><defs><path id="a" fill="#865D53" d="M53 20.35q-.75-3.25-3.55-4.9-2-1.2-6.05-1.9-2.25-.45-3.4-.8-2.8-.95-3.95-2.6-.9-1.25-1.4-3.8-.35-2.55-.55-3.1-.6-1.55-3.55.4-1.65 1.15-3.75 3.6-2.45 2.95-3.5 5.7-1.5 4.1-.7 7.8-1.85.3-3.5 1.05l-.3.1q-1.65.7-3.3 2.85-2.1 2.75-2.3 6.05-.2 2.7.65 5.25-9.826 3.603-8 14.05-3.543 1.132-4.25 6.95-.652 5.868 2.25 8.15 2.941 2.33 17.65 3.45 14.773 1.11 29.55-.2 14.818-1.304 17.3-3.8 2.54-2.45 2.55-5.8-.001-6.52-6.25-8.55 3.132-8.559-5.1-13.65 1.1-4.05-2.05-7.5-1.6-1.75-3.6-2.65l-1.65-.5q1.45-2.75.75-5.65z"/><path id="b" fill="#FFF" d="M30.65 55.55Q26.5 60.75 27 67.6q.5 6.85 5.4 11.4 4.9 4.5 11.3 4t10.55-5.7q4.2-5.2 3.65-12.05-.5-6.85-5.4-11.35-4.9-4.55-11.3-4.05t-10.55 5.7z"/><path id="c" fill="#2F2F2F" d="M38.15 62.25q-1.55 2-1.25 4.45.3 2.45 2.25 3.95 2 1.55 4.5 1.2 2.5-.3 4.1-2.25 1.55-1.95 1.25-4.45-.3-2.45-2.3-4-1.95-1.5-4.45-1.2-2.5.35-4.1 2.3z"/><path id="d" fill="#FFF" d="M30.65 55.55Q26.5 60.75 27 67.6q.5 6.85 5.4 11.4 4.9 4.5 11.3 4t10.55-5.7q4.2-5.2 3.65-12.05-.5-6.85-5.4-11.35-4.9-4.55-11.3-4.05t-10.55 5.7z"/><path id="e" fill="#2F2F2F" d="M38.15 62.25q-1.55 2-1.25 4.45.3 2.45 2.25 3.95 2 1.55 4.5 1.2 2.5-.3 4.1-2.25 1.55-1.95 1.25-4.45-.3-2.45-2.3-4-1.95-1.5-4.45-1.2-2.5.35-4.1 2.3z"/><path id="f" fill="#ED6D31" d="M87.3 89.5q-1.45-.95-3.65-.75-.65.05-3.8.75Q72.7 90.95 64 90.95q-8.75 0-15.9-1.45-3.15-.7-3.8-.75-2.2-.2-3.65.75-2.1 1.4-.9 5.65 1.2 4.15 4.6 7.7 2.95 3.1 6.85 5.15 5.85 3.05 12.8 3.05 6.95 0 12.75-3.05 3.9-2 6.9-5.15 3.35-3.55 4.55-7.7 1.2-4.25-.9-5.65z"/></defs><use xlink:href="#a"/><use transform="matrix(.52425 0 0 .56248 2 0)" xlink:href="#b"/><use transform="matrix(.7423 0 0 .98233 -7.6 -27.55)" xlink:href="#c"/><use transform="matrix(.52425 0 0 .56248 25.55 0)" xlink:href="#d"/><use transform="matrix(.7423 0 0 .98233 15.95 -27.55)" xlink:href="#e"/><use transform="scale(.56248)" xlink:href="#f"/></svg>

<svg xmlns="http://www.w3.org/2000/svg" version="1.1" xmlns:xlink="http://www.w3.org/1999/xlink" preserveAspectRatio="none" x="0px" y="0px" width="72px" height="72px" viewBox="0 0 72 72">
<defs>
<g id="Layer0_0_FILL">
<path fill="#865D53" stroke="none" d="
M 53 20.35
Q 52.25 17.1 49.45 15.45 47.45 14.25 43.4 13.55 41.15 13.1 40 12.75 37.2 11.8 36.05 10.15 35.15 8.9 34.65 6.35 34.3 3.8 34.1 3.25 33.5 1.7 30.55 3.65 28.9 4.8 26.8 7.25 24.35 10.2 23.3 12.95 21.8 17.05 22.6 20.75 20.75 21.05 19.1 21.8
L 18.8 21.9
Q 17.15 22.6 15.5 24.75 13.4 27.5 13.2 30.8 13 33.5 13.85 36.05 4.0240234375 39.653125 5.85 50.1 2.3068359375 51.23203125 1.6 57.05 0.9482421875 62.9177734375 3.85 65.2 6.7912109375 67.530078125 21.5 68.65 36.27265625 69.7607421875 51.05 68.45 65.86796875 67.1462890625 68.35 64.65 70.8896484375 62.2 70.9 58.85 70.8986328125 52.33046875 64.65 50.3 67.7822265625 41.741015625 59.55 36.65 60.65 32.6 57.5 29.15 55.9 27.4 53.9 26.5
L 52.25 26
Q 53.7 23.25 53 20.35 Z"/>
</g>

<g id="Layer0_1_MEMBER_0_MEMBER_0_MEMBER_0_FILL">
<path fill="#FFFFFF" stroke="none" d="
M 30.65 55.55
Q 26.5 60.75 27 67.6 27.5 74.45 32.4 79 37.3 83.5 43.7 83 50.1 82.5 54.25 77.3 58.45 72.1 57.9 65.25 57.4 58.4 52.5 53.9 47.6 49.35 41.2 49.85 34.8 50.35 30.65 55.55 Z"/>
</g>

<g id="Layer0_1_MEMBER_0_MEMBER_0_MEMBER_1_FILL">
<path fill="#2F2F2F" stroke="none" d="
M 38.15 62.25
Q 36.6 64.25 36.9 66.7 37.2 69.15 39.15 70.65 41.15 72.2 43.65 71.85 46.15 71.55 47.75 69.6 49.3 67.65 49 65.15 48.7 62.7 46.7 61.15 44.75 59.65 42.25 59.95 39.75 60.3 38.15 62.25 Z"/>
</g>

<g id="Layer0_1_MEMBER_0_MEMBER_1_MEMBER_0_FILL">
<path fill="#FFFFFF" stroke="none" d="
M 30.65 55.55
Q 26.5 60.75 27 67.6 27.5 74.45 32.4 79 37.3 83.5 43.7 83 50.1 82.5 54.25 77.3 58.45 72.1 57.9 65.25 57.4 58.4 52.5 53.9 47.6 49.35 41.2 49.85 34.8 50.35 30.65 55.55 Z"/>
</g>

<g id="Layer0_1_MEMBER_0_MEMBER_1_MEMBER_1_FILL">
<path fill="#2F2F2F" stroke="none" d="
M 38.15 62.25
Q 36.6 64.25 36.9 66.7 37.2 69.15 39.15 70.65 41.15 72.2 43.65 71.85 46.15 71.55 47.75 69.6 49.3 67.65 49 65.15 48.7 62.7 46.7 61.15 44.75 59.65 42.25 59.95 39.75 60.3 38.15 62.25 Z"/>
</g>

<g id="Layer0_2_FILL">
<path fill="#ED6D31" stroke="none" d="
M 87.3 89.5
Q 85.85 88.55 83.65 88.75 83 88.8 79.85 89.5 72.7 90.95 64 90.95 55.25 90.95 48.1 89.5 44.95 88.8 44.3 88.75 42.1 88.55 40.65 89.5 38.55 90.9 39.75 95.15 40.95 99.3 44.35 102.85 47.3 105.95 51.2 108 57.05 111.05 64 111.05 70.95 111.05 76.75 108 80.65 106 83.65 102.85 87 99.3 88.2 95.15 89.4 90.9 87.3 89.5 Z"/>
</g>
</defs>

<g id="Layer_1">
<g transform="matrix( 1, 0, 0, 1, 0,0) ">
<use xlink:href="#Layer0_0_FILL"/>
</g>

<g transform="matrix( 0.5242462158203125, 0, 0, 0.5624847412109375, 2,0) ">
<use xlink:href="#Layer0_1_MEMBER_0_MEMBER_0_MEMBER_0_FILL"/>
</g>

<g transform="matrix( 0.7422943115234375, 0, 0, 0.982330322265625, -7.6,-27.55) ">
<use xlink:href="#Layer0_1_MEMBER_0_MEMBER_0_MEMBER_1_FILL"/>
</g>

<g transform="matrix( 0.5242462158203125, 0, 0, 0.5624847412109375, 25.55,0) ">
<use xlink:href="#Layer0_1_MEMBER_0_MEMBER_1_MEMBER_0_FILL"/>
</g>

<g transform="matrix( 0.7422943115234375, 0, 0, 0.982330322265625, 15.95,-27.55) ">
<use xlink:href="#Layer0_1_MEMBER_0_MEMBER_1_MEMBER_1_FILL"/>
</g>

<g transform="matrix( 0.5624847412109375, 0, 0, 0.5624847412109375, 0,0) ">
<use xlink:href="#Layer0_2_FILL"/>
</g>
</g>
</svg>
